48x48/apps/quake2.svg

<svg xmlns="http://www.w3.org/2000/svg" width="48" height="48"><circle style="opacity:.2" cx="24" cy="25" r="20"/><circle style="fill:#4f4f4f" cx="24" cy="24" r="20"/><path style="opacity:.1" d="M19 14.11A12 12 0 0 0 12 25a12 12 0 0 0 12 12 12 12 0 0 0 12-12 12 12 0 0 0-7-10.883v.235A10 10 0 0 1 34 23a10 10 0 0 1-10 10 10 10 0 0 1-10-10 10 10 0 0 1 5-8.645z"/><path style="fill:#86c14d" d="M19 13.11A12 12 0 0 0 12 24a12 12 0 0 0 12 12 12 12 0 0 0 12-12 12 12 0 0 0-7-10.883v.235A10 10 0 0 1 34 22a10 10 0 0 1-10 10 10 10 0 0 1-10-10 10 10 0 0 1 5-8.645z"/><path style="opacity:.2;fill:#f4f4f7" d="M19 13.11A12 12 0 0 0 12 24a12 12 0 0 0 .021.408 12 12 0 0 1 3.86-8.215A10 10 0 0 1 19 13.355v-.246zm10 .007v.235a10 10 0 0 1 3.145 2.877 12 12 0 0 1 3.834 8.373A12 12 0 0 0 36 24a12 12 0 0 0-7-10.883zm4.979 9.315A10 10 0 0 1 24 32a10 10 0 0 1-9.979-9.414A10 10 0 0 0 14 23a10 10 0 0 0 10 10 10 10 0 0 0 10-10 10 10 0 0 0-.021-.568z"/><path style="fill:#f4f4f7;opacity:.1" d="M24 4A20 20 0 0 0 4 24a20 20 0 0 0 .021.582A20 20 0 0 1 24 5a20 20 0 0 1 19.979 19.418A20 20 0 0 0 44 24 20 20 0 0 0 24 4z"/><path style="opacity:.2" d="m17 26 2 2v13l2 6 2-6V28l2-2h-6z"/><path style="opacity:.2" d="m23 26 2 2v13l2 6 2-6V28l2-2h-6z"/><path style="fill:#86c14d" d="m17 25 2 2v13l2 6 2-6V27l2-2h-6z"/><path style="opacity:.2;fill:#f4f4f7" d="m17 25 1 1h6l1-1h-6z"/><path style="fill:#86c14d" d="m23 25 2 2v13l2 6 2-6V27l2-2h-6z"/><path style="opacity:.2;fill:#f4f4f7" d="m23 25 1 1h6l1-1h-6z"/></svg>

<svg xmlns="http://www.w3.org/2000/svg" width="48" height="48" version="1.1">
 <circle style="opacity:0.2" cx="24" cy="25" r="20"/>
 <circle style="fill:#4f4f4f" cx="24" cy="24" r="20"/>
 <path style="opacity:0.1" d="M 19,14.109375 A 12,12 0 0 0 12,25 12,12 0 0 0 24,37 12,12 0 0 0 36,25 12,12 0 0 0 29,14.117188 v 0.234374 A 10,10 0 0 1 34,23 10,10 0 0 1 24,33 10,10 0 0 1 14,23 10,10 0 0 1 19,14.355469 Z"/>
 <path style="fill:#86c14d" d="M 19,13.109375 A 12,12 0 0 0 12,24 12,12 0 0 0 24,36 12,12 0 0 0 36,24 12,12 0 0 0 29,13.117188 v 0.234374 A 10,10 0 0 1 34,22 10,10 0 0 1 24,32 10,10 0 0 1 14,22 10,10 0 0 1 19,13.355469 Z"/>
 <path style="opacity:0.2;fill:#f4f4f7" d="M 19 13.109375 A 12 12 0 0 0 12 24 A 12 12 0 0 0 12.021484 24.408203 A 12 12 0 0 1 15.880859 16.193359 A 10 10 0 0 1 19 13.355469 L 19 13.109375 z M 29 13.117188 L 29 13.351562 A 10 10 0 0 1 32.144531 16.228516 A 12 12 0 0 1 35.978516 24.601562 A 12 12 0 0 0 36 24 A 12 12 0 0 0 29 13.117188 z M 33.978516 22.431641 A 10 10 0 0 1 24 32 A 10 10 0 0 1 14.021484 22.585938 A 10 10 0 0 0 14 23 A 10 10 0 0 0 24 33 A 10 10 0 0 0 34 23 A 10 10 0 0 0 33.978516 22.431641 z"/>
 <path style="fill:#f4f4f7;opacity:0.1" d="M 24 4 A 20 20 0 0 0 4 24 A 20 20 0 0 0 4.0214844 24.582031 A 20 20 0 0 1 24 5 A 20 20 0 0 1 43.978516 24.417969 A 20 20 0 0 0 44 24 A 20 20 0 0 0 24 4 z"/>
 <path style="opacity:0.2" d="m 17,26 2,2 v 13 l 2,6 2,-6 V 28 l 2,-2 h -2 -4 z"/>
 <path style="opacity:0.2" d="m 23,26 2,2 v 13 l 2,6 2,-6 V 28 l 2,-2 h -2 -4 z"/>
 <path style="fill:#86c14d" d="m 17,25 2,2 v 13 l 2,6 2,-6 V 27 l 2,-2 h -2 -4 z"/>
 <path style="opacity:0.2;fill:#f4f4f7" d="m 17,25 1,1 h 1 4 1 l 1,-1 h -2 -4 z"/>
 <path style="fill:#86c14d" d="m 23,25 2,2 v 13 l 2,6 2,-6 V 27 l 2,-2 h -2 -4 z"/>
 <path style="opacity:0.2;fill:#f4f4f7" d="m 23,25 1,1 h 1 4 1 l 1,-1 h -2 -4 z"/>
</svg>
